X: 11
T: Jimmy Ward's
R: jig
M: 6/8
L: 1/8
K: Gmaj
|: G3 GAB | AGE GED | G3 AGE | GED D3 |
G3 GAB | AGE GAB | c2 A BGE |1 D3 DEF :|2 D3 D2B||
|: c2 A BAG | A3 AGE | c2 A BGE | D3 DEG |
c2 A BAG | AF/D/A ABc | dcA AGE | GED D3 :|


Tune 793	Setting 25901

